Newaita-dark/apps/48/com.github.torikulhabib.mindi.svg

<svg height="48pt" viewBox="0 0 48 48" width="48pt" xmlns="http://www.w3.org/2000/svg" xmlns:xlink="http://www.w3.org/1999/xlink"><linearGradient id="a"><stop offset="0" stop-opacity=".313725"/><stop offset=".222222" stop-opacity=".27451"/><stop offset="1" stop-opacity="0"/></linearGradient><radialGradient id="b" cx="450.90894" cy="189.57936" gradientTransform="matrix(.00000026 -.117199 -.210958 -.00000015 49.915931 95.393002)" gradientUnits="userSpaceOnUse" r="21.166656" xlink:href="#a"/><radialGradient id="c" cx="450.90894" cy="189.57936" gradientTransform="matrix(-.00000026 .117199 .210958 .00000015 -29.077997 -11.291218)" gradientUnits="userSpaceOnUse" r="21.166656" xlink:href="#a"/><radialGradient id="d" cx="450.90894" cy="189.57936" gradientTransform="matrix(-.00000026 -.117199 .210958 -.00000015 -29.077997 95.393002)" gradientUnits="userSpaceOnUse" r="21.166656" xlink:href="#a"/><radialGradient id="e" cx="450.90894" cy="189.57936" gradientTransform="matrix(.00000026 .117199 -.210958 .00000015 49.915928 -11.291219)" gradientUnits="userSpaceOnUse" r="21.166656" xlink:href="#a"/><linearGradient id="f" gradientUnits="userSpaceOnUse" x1="23.814786" x2="23.814786" y1="42.0509015" y2="4.34415668747"><stop offset="0" stop-color="#9ccc65"/><stop offset="1" stop-color="#aed581"/></linearGradient><linearGradient id="g" gradientUnits="userSpaceOnUse" x1="19.18112422544" x2="19.18112422544" y1="32.95977345299" y2="15.17281533875"><stop offset="0" stop-color="#424242"/><stop offset="1" stop-color="#616161"/></linearGradient><path d="m10.417969 42.050781h3.96875v-1.984375h-3.96875zm0 0" fill="url(#b)"/><path d="m10.417969 42.050781h-3.96875v1.984375h3.96875zm0 0" fill="url(#c)"/><path d="m10.417969 42.050781h-3.96875v-1.984375h3.96875zm0 0" fill="url(#d)"/><path d="m10.417969 42.050781h3.96875v1.984375h-3.96875zm0 0" fill="url(#e)"/><path d="m10.921875 4.34375c-.128906 0-.257813.007812-.386719.023438-.023437.003906-.042968.007812-.0625.007812-.011718.003906-.019531.003906-.027344.007812-.011718 0-.023437 0-.035156.003907-1.289062.21875-2.292968 1.257812-2.449218 2.570312-.003907.019531-.003907.039063-.007813.0625-.011719.125-.019531.25-.015625.375v31.679688.019531c-.011719.53125.117188 1.070312.402344 1.566406.824218 1.429688 2.636718 1.914063 4.066406 1.089844l27.496094-15.878906c.972656-.558594 1.507812-1.578125 1.492187-2.625.015625-1.042969-.519531-2.0625-1.492187-2.625l-27.378906-15.808594c-.328126-.210938-.699219-.355469-1.097657-.425781-.019531-.003907-.042969-.007813-.0625-.007813-.148437-.023437-.292969-.035156-.441406-.035156zm0 0" fill="url(#f)"/><path d="m10.921875 4.34375c-.128906 0-.257813.007812-.386719.023438-.023437.003906-.042968.007812-.0625.007812-.011718.003906-.019531.003906-.027344.007812-.011718 0-.023437 0-.035156.003907-1.289062.21875-2.292968 1.257812-2.449218 2.570312-.003907.019531-.003907.039063-.007813.0625-.011719.125-.019531.25-.015625.375v.371094c.003906-.082031.007812-.167969.015625-.25.003906-.019531.003906-.042969.007813-.0625.15625-1.308594 1.160156-2.351563 2.449218-2.570313.011719 0 .023438-.003906.035156-.003906.007813-.003906.015626-.003906.027344-.003906.019532-.003906.039063-.007812.0625-.011719.128906-.015625.257813-.023437.386719-.023437.148437 0 .292969.011718.441406.035156.019531.003906.042969.007812.0625.011719.398438.066406.769531.214843 1.097657.421875l27.378906 15.808594c.898437.519531 1.421875 1.421874 1.484375 2.378906.007812-.082032.007812-.164063.007812-.25.015625-1.042969-.519531-2.0625-1.492187-2.625l-27.378906-15.808594c-.328126-.210938-.699219-.355469-1.097657-.425781-.019531-.003907-.042969-.007813-.0625-.007813-.148437-.023437-.292969-.035156-.441406-.035156zm-2.984375 34.777344v.097656zm0 0" fill="#fff" fill-opacity=".392157"/><path d="m7.9375 7.269531v.125zm33.429688 15.53125c-.117188.878907-.628907 1.695313-1.464844 2.175781l-27.496094 15.875c-1.429688.828126-3.242188.339844-4.066406-1.085937-.265625-.457031-.394532-.953125-.402344-1.441406v.75.019531c-.011719.53125.117188 1.070312.402344 1.566406.824218 1.429688 2.636718 1.914063 4.066406 1.089844l27.496094-15.878906c.972656-.558594 1.507812-1.578125 1.492187-2.625.003907-.148438-.007812-.300782-.027343-.445313zm-33.429688 15.378907v.042968c0-.007812 0-.015625 0-.023437 0-.007813 0-.015625 0-.019531zm0 0" fill-opacity=".235294"/><path d="m10.925781 4.203125c-.136719 0-.273437.007813-.410156.023437-.019531.003907-.042969.007813-.066406.011719-.007813 0-.019531.003907-.027344.003907-.011719 0-.023437.003906-.03125.003906-1.351563.230468-2.402344 1.320312-2.570313 2.691406-.003906.023438-.003906.042969-.007812.066406-.011719.132813-.019531.261719-.015625.394532v-.003907 31.679688.015625c-.011719.554687.121094 1.121094.421875 1.640625.859375 1.492187 2.761719 2.003906 4.257812 1.140625l27.496094-15.875c1.019532-.589844 1.578125-1.65625 1.5625-2.75.015625-1.09375-.542968-2.160156-1.5625-2.746094l-27.375-15.804688c-.339844-.21875-.730468-.375-1.148437-.445312-.019531-.003906-.042969-.007812-.066407-.011719-.152343-.023437-.304687-.035156-.457031-.035156zm-.003906.28125c.140625 0 .28125.011719.417969.03125.023437.003906.042968.007813.0625.011719.378906.0625.734375.203125 1.046875.402344v.003906l27.382812 15.808594c.929688.535156 1.4375 1.507812 1.421875 2.503906v.003906c.015625.996094-.492187 1.964844-1.421875 2.5l-27.496093 15.878906c-1.363282.785156-3.089844.324219-3.875-1.039062-.273438-.472656-.394532-.988282-.382813-1.492188v-.003906c0-.011719 0-.015625 0-.019531v-31.683594c-.003906-.121094.003906-.238281.015625-.359375 0-.019531.003906-.039062.007812-.058594.148438-1.246094 1.105469-2.238281 2.332032-2.449218h.003906c.007812 0 .019531 0 .027344-.003907.011718 0 .019531-.003906.027344-.003906.019531-.003906.039062-.003906.0625-.007813.121093-.015624.246093-.023437.367187-.023437zm0 0" fill="#212121"/><path d="m16.371094 15.171875c-.613282 0-1.105469.578125-1.105469 1.289063v11.050781c-.347656-.101563-.71875-.15625-1.109375-.15625-1.839844 0-3.320312 1.234375-3.320312 2.769531s1.480468 2.769531 3.320312 2.769531c1.84375 0 3.324219-1.234375 3.324219-2.769531v-12.183594c0-.304687.246093-.554687.554687-.554687h5.535156c.308594 0 .554688.25.554688.554687v6.25c-.34375-.101562-.71875-.160156-1.105469-.160156-1.84375 0-3.324219 1.238281-3.324219 2.769531 0 1.535157 1.480469 2.769531 3.324219 2.769531 1.839844 0 3.320313-1.234374 3.320313-2.769531v-10.339843c0-.710938-.492188-1.289063-1.105469-1.289063zm0 0" fill="url(#g)"/><path d="m16.371094 15.171875c-.613282 0-1.105469.578125-1.105469 1.289063v.496093c0-.710937.492187-1.289062 1.105469-1.289062h8.863281c.613281 0 1.105469.578125 1.105469 1.289062v-.496093c0-.710938-.492188-1.289063-1.105469-1.289063zm6.648437 8.859375c-1.84375 0-3.324219 1.238281-3.324219 2.769531 0 .085938.003907.167969.011719.25.152344-1.417969 1.570313-2.519531 3.3125-2.519531.386719 0 .761719.054688 1.105469.15625v-.496094c-.34375-.101562-.71875-.160156-1.105469-.160156zm-8.863281 3.324219c-1.839844 0-3.320312 1.234375-3.320312 2.769531 0 .082031.003906.167969.011718.246094.148438-1.414063 1.570313-2.519532 3.308594-2.519532.390625 0 .761719.054688 1.109375.15625v-.496093c-.347656-.101563-.71875-.15625-1.109375-.15625zm0 0" fill="#fff" fill-opacity=".392157"/><path d="m18.035156 17.386719c-.308594 0-.554687.25-.554687.554687v.746094c0-.308594.246093-.554688.554687-.554688h5.535156c.308594 0 .554688.246094.554688.554688v-.746094c0-.304687-.246094-.554687-.554688-.554687zm8.304688 9.414062c0 1.535157-1.480469 2.769531-3.320313 2.769531-1.691406 0-3.078125-1.039062-3.292969-2.394531-.019531.121094-.03125.246094-.03125.371094 0 1.535156 1.480469 2.769531 3.324219 2.769531 1.839844 0 3.320313-1.234375 3.320313-2.769531zm-8.859375 3.324219c0 1.535156-1.480469 2.769531-3.324219 2.769531-1.6875 0-3.074219-1.039062-3.292969-2.398437-.019531.121094-.027343.246094-.027343.371094 0 1.535156 1.480468 2.769531 3.320312 2.769531 1.84375 0 3.324219-1.234375 3.324219-2.769531zm0 0" fill-opacity=".235294"/><path d="m174.608326-53.18212c-6.541042 0-11.790541 6.166078-11.790541 13.748688v117.863744c-3.707979-1.08323-7.665935-1.666507-11.832203-1.666507-19.623126 0-35.413285 13.165409-35.413285 29.538845 0 16.373437 15.790159 29.538846 35.413285 29.538846 19.664788 0 35.454947-13.165409 35.454947-29.538846v-129.945924c0-3.249689 2.62475-5.916101 5.916102-5.916101h59.036029c3.291352 0 5.916102 2.666412 5.916102 5.916101v66.660301c-3.666317-1.08323-7.665935-1.70817-11.790541-1.70817-19.664789 0-35.454948 13.207072-35.454948 29.538846 0 16.373436 15.790159 29.538846 35.454948 29.538846 19.623126 0 35.413285-13.16541 35.413285-29.538846v-110.281135c0-7.58261-5.249499-13.748688-11.790541-13.748688zm0 0" fill="none" stroke="#212121" stroke-linecap="round" stroke-width="3" transform="matrix(.093759 0 0 .093759 0 20.158175)"/></svg>

<?xml version="1.0" encoding="UTF-8"?>
<svg xmlns="http://www.w3.org/2000/svg" xmlns:xlink="http://www.w3.org/1999/xlink" width="48pt" height="48pt" viewBox="0 0 48 48" version="1.1">
<defs>
<radialGradient id="radial0" gradientUnits="userSpaceOnUse" cx="450.90894" cy="189.57936" fx="450.90894" fy="189.57936" r="21.166656" gradientTransform="matrix(0.000000261256,-0.117199,-0.210958,-0.000000152308,49.915931,95.393002)">
<stop offset="0" style="stop-color:rgb(0%,0%,0%);stop-opacity:0.313725;"/>
<stop offset="0.222222" style="stop-color:rgb(0%,0%,0%);stop-opacity:0.27451;"/>
<stop offset="1" style="stop-color:rgb(0%,0%,0%);stop-opacity:0;"/>
</radialGradient>
<radialGradient id="radial1" gradientUnits="userSpaceOnUse" cx="450.90894" cy="189.57936" fx="450.90894" fy="189.57936" r="21.166656" gradientTransform="matrix(-0.000000261256,0.117199,0.210958,0.000000152308,-29.077997,-11.291218)">
<stop offset="0" style="stop-color:rgb(0%,0%,0%);stop-opacity:0.313725;"/>
<stop offset="0.222222" style="stop-color:rgb(0%,0%,0%);stop-opacity:0.27451;"/>
<stop offset="1" style="stop-color:rgb(0%,0%,0%);stop-opacity:0;"/>
</radialGradient>
<radialGradient id="radial2" gradientUnits="userSpaceOnUse" cx="450.90894" cy="189.57936" fx="450.90894" fy="189.57936" r="21.166656" gradientTransform="matrix(-0.000000261256,-0.117199,0.210958,-0.000000152308,-29.077997,95.393002)">
<stop offset="0" style="stop-color:rgb(0%,0%,0%);stop-opacity:0.313725;"/>
<stop offset="0.222222" style="stop-color:rgb(0%,0%,0%);stop-opacity:0.27451;"/>
<stop offset="1" style="stop-color:rgb(0%,0%,0%);stop-opacity:0;"/>
</radialGradient>
<radialGradient id="radial3" gradientUnits="userSpaceOnUse" cx="450.90894" cy="189.57936" fx="450.90894" fy="189.57936" r="21.166656" gradientTransform="matrix(0.000000261256,0.117199,-0.210958,0.000000152308,49.915928,-11.291219)">
<stop offset="0" style="stop-color:rgb(0%,0%,0%);stop-opacity:0.313725;"/>
<stop offset="0.222222" style="stop-color:rgb(0%,0%,0%);stop-opacity:0.27451;"/>
<stop offset="1" style="stop-color:rgb(0%,0%,0%);stop-opacity:0;"/>
</radialGradient>
<linearGradient id="linear0" gradientUnits="userSpaceOnUse" x1="254" y1="233.5" x2="254" y2="-168.66667" gradientTransform="matrix(0.093759,0,0,0.093759,0,20.158175)">
<stop offset="0" style="stop-color:rgb(61.176471%,80%,39.607843%);stop-opacity:1;"/>
<stop offset="1" style="stop-color:rgb(68.235294%,83.529412%,50.588235%);stop-opacity:1;"/>
</linearGradient>
<linearGradient id="linear1" gradientUnits="userSpaceOnUse" x1="981.43005" y1="1457.5077" x2="981.43005" y2="815.11719" gradientTransform="matrix(0.0276887,0,0,0.0276887,-7.993398,-7.39672)">
<stop offset="0" style="stop-color:rgb(25.882353%,25.882353%,25.882353%);stop-opacity:1;"/>
<stop offset="1" style="stop-color:rgb(38.039216%,38.039216%,38.039216%);stop-opacity:1;"/>
</linearGradient>
</defs>
<g id="surface1">
<path style=" stroke:none;fill-rule:nonzero;fill:url(#radial0);" d="M 10.417969 42.050781 L 14.386719 42.050781 L 14.386719 40.066406 L 10.417969 40.066406 Z M 10.417969 42.050781 "/>
<path style=" stroke:none;fill-rule:nonzero;fill:url(#radial1);" d="M 10.417969 42.050781 L 6.449219 42.050781 L 6.449219 44.035156 L 10.417969 44.035156 Z M 10.417969 42.050781 "/>
<path style=" stroke:none;fill-rule:nonzero;fill:url(#radial2);" d="M 10.417969 42.050781 L 6.449219 42.050781 L 6.449219 40.066406 L 10.417969 40.066406 Z M 10.417969 42.050781 "/>
<path style=" stroke:none;fill-rule:nonzero;fill:url(#radial3);" d="M 10.417969 42.050781 L 14.386719 42.050781 L 14.386719 44.035156 L 10.417969 44.035156 Z M 10.417969 42.050781 "/>
<path style=" stroke:none;fill-rule:nonzero;fill:url(#linear0);" d="M 10.921875 4.34375 C 10.792969 4.34375 10.664062 4.351562 10.535156 4.367188 C 10.511719 4.371094 10.492188 4.375 10.472656 4.375 C 10.460938 4.378906 10.453125 4.378906 10.445312 4.382812 C 10.433594 4.382812 10.421875 4.382812 10.410156 4.386719 C 9.121094 4.605469 8.117188 5.644531 7.960938 6.957031 C 7.957031 6.976562 7.957031 6.996094 7.953125 7.019531 C 7.941406 7.144531 7.933594 7.269531 7.9375 7.394531 L 7.9375 39.074219 C 7.9375 39.082031 7.9375 39.085938 7.9375 39.09375 C 7.925781 39.625 8.054688 40.164062 8.339844 40.660156 C 9.164062 42.089844 10.976562 42.574219 12.40625 41.75 L 39.902344 25.871094 C 40.875 25.3125 41.410156 24.292969 41.394531 23.246094 C 41.410156 22.203125 40.875 21.183594 39.902344 20.621094 L 12.523438 4.8125 C 12.195312 4.601562 11.824219 4.457031 11.425781 4.386719 C 11.40625 4.382812 11.382812 4.378906 11.363281 4.378906 C 11.214844 4.355469 11.070312 4.34375 10.921875 4.34375 Z M 10.921875 4.34375 "/>
<path style=" stroke:none;fill-rule:nonzero;fill:rgb(100%,100%,100%);fill-opacity:0.392157;" d="M 10.921875 4.34375 C 10.792969 4.34375 10.664062 4.351562 10.535156 4.367188 C 10.511719 4.371094 10.492188 4.375 10.472656 4.375 C 10.460938 4.378906 10.453125 4.378906 10.445312 4.382812 C 10.433594 4.382812 10.421875 4.382812 10.410156 4.386719 C 9.121094 4.605469 8.117188 5.644531 7.960938 6.957031 C 7.957031 6.976562 7.957031 6.996094 7.953125 7.019531 C 7.941406 7.144531 7.933594 7.269531 7.9375 7.394531 L 7.9375 7.765625 C 7.941406 7.683594 7.945312 7.597656 7.953125 7.515625 C 7.957031 7.496094 7.957031 7.472656 7.960938 7.453125 C 8.117188 6.144531 9.121094 5.101562 10.410156 4.882812 C 10.421875 4.882812 10.433594 4.878906 10.445312 4.878906 C 10.453125 4.875 10.460938 4.875 10.472656 4.875 C 10.492188 4.871094 10.511719 4.867188 10.535156 4.863281 C 10.664062 4.847656 10.792969 4.839844 10.921875 4.839844 C 11.070312 4.839844 11.214844 4.851562 11.363281 4.875 C 11.382812 4.878906 11.40625 4.882812 11.425781 4.886719 C 11.824219 4.953125 12.195312 5.101562 12.523438 5.308594 L 39.902344 21.117188 C 40.800781 21.636719 41.324219 22.539062 41.386719 23.496094 C 41.394531 23.414062 41.394531 23.332031 41.394531 23.246094 C 41.410156 22.203125 40.875 21.183594 39.902344 20.621094 L 12.523438 4.8125 C 12.195312 4.601562 11.824219 4.457031 11.425781 4.386719 C 11.40625 4.382812 11.382812 4.378906 11.363281 4.378906 C 11.214844 4.355469 11.070312 4.34375 10.921875 4.34375 Z M 7.9375 39.121094 C 7.9375 39.152344 7.9375 39.1875 7.9375 39.21875 Z M 7.9375 39.121094 "/>
<path style=" stroke:none;fill-rule:nonzero;fill:rgb(0%,0%,0%);fill-opacity:0.235294;" d="M 7.9375 7.269531 C 7.9375 7.3125 7.9375 7.351562 7.9375 7.394531 Z M 41.367188 22.800781 C 41.25 23.679688 40.738281 24.496094 39.902344 24.976562 L 12.40625 40.851562 C 10.976562 41.679688 9.164062 41.191406 8.339844 39.765625 C 8.074219 39.308594 7.945312 38.8125 7.9375 38.324219 L 7.9375 39.074219 C 7.9375 39.082031 7.9375 39.085938 7.9375 39.09375 C 7.925781 39.625 8.054688 40.164062 8.339844 40.660156 C 9.164062 42.089844 10.976562 42.574219 12.40625 41.75 L 39.902344 25.871094 C 40.875 25.3125 41.410156 24.292969 41.394531 23.246094 C 41.398438 23.097656 41.386719 22.945312 41.367188 22.800781 Z M 7.9375 38.179688 L 7.9375 38.222656 C 7.9375 38.214844 7.9375 38.207031 7.9375 38.199219 C 7.9375 38.191406 7.9375 38.183594 7.9375 38.179688 Z M 7.9375 38.179688 "/>
<path style=" stroke:none;fill-rule:nonzero;fill:rgb(12.941176%,12.941176%,12.941176%);fill-opacity:1;" d="M 10.925781 4.203125 C 10.789062 4.203125 10.652344 4.210938 10.515625 4.226562 C 10.496094 4.230469 10.472656 4.234375 10.449219 4.238281 C 10.441406 4.238281 10.429688 4.242188 10.421875 4.242188 C 10.410156 4.242188 10.398438 4.246094 10.390625 4.246094 C 9.039062 4.476562 7.988281 5.566406 7.820312 6.9375 C 7.816406 6.960938 7.816406 6.980469 7.8125 7.003906 C 7.800781 7.136719 7.792969 7.265625 7.796875 7.398438 L 7.796875 7.394531 L 7.796875 39.074219 C 7.796875 39.082031 7.796875 39.085938 7.796875 39.089844 C 7.785156 39.644531 7.917969 40.210938 8.21875 40.730469 C 9.078125 42.222656 10.980469 42.734375 12.476562 41.871094 L 39.972656 25.996094 C 40.992188 25.40625 41.550781 24.339844 41.535156 23.246094 C 41.550781 22.152344 40.992188 21.085938 39.972656 20.5 L 12.597656 4.695312 C 12.257812 4.476562 11.867188 4.320312 11.449219 4.25 C 11.429688 4.246094 11.40625 4.242188 11.382812 4.238281 C 11.230469 4.214844 11.078125 4.203125 10.925781 4.203125 Z M 10.921875 4.484375 C 11.0625 4.484375 11.203125 4.496094 11.339844 4.515625 C 11.363281 4.519531 11.382812 4.523438 11.402344 4.527344 C 11.78125 4.589844 12.136719 4.730469 12.449219 4.929688 L 12.449219 4.933594 L 39.832031 20.742188 C 40.761719 21.277344 41.269531 22.25 41.253906 23.246094 L 41.253906 23.25 C 41.269531 24.246094 40.761719 25.214844 39.832031 25.75 L 12.335938 41.628906 C 10.972656 42.414062 9.246094 41.953125 8.460938 40.589844 C 8.1875 40.117188 8.066406 39.601562 8.078125 39.097656 L 8.078125 39.09375 C 8.078125 39.082031 8.078125 39.078125 8.078125 39.074219 L 8.078125 7.390625 C 8.074219 7.269531 8.082031 7.152344 8.09375 7.03125 C 8.09375 7.011719 8.097656 6.992188 8.101562 6.972656 C 8.25 5.726562 9.207031 4.734375 10.433594 4.523438 L 10.4375 4.523438 C 10.445312 4.523438 10.457031 4.523438 10.464844 4.519531 C 10.476562 4.519531 10.484375 4.515625 10.492188 4.515625 C 10.511719 4.511719 10.53125 4.511719 10.554688 4.507812 C 10.675781 4.492188 10.800781 4.484375 10.921875 4.484375 Z M 10.921875 4.484375 "/>
<path style=" stroke:none;fill-rule:nonzero;fill:url(#linear1);" d="M 16.371094 15.171875 C 15.757812 15.171875 15.265625 15.75 15.265625 16.460938 L 15.265625 27.511719 C 14.917969 27.410156 14.546875 27.355469 14.15625 27.355469 C 12.316406 27.355469 10.835938 28.589844 10.835938 30.125 C 10.835938 31.660156 12.316406 32.894531 14.15625 32.894531 C 16 32.894531 17.480469 31.660156 17.480469 30.125 L 17.480469 17.941406 C 17.480469 17.636719 17.726562 17.386719 18.035156 17.386719 L 23.570312 17.386719 C 23.878906 17.386719 24.125 17.636719 24.125 17.941406 L 24.125 24.191406 C 23.78125 24.089844 23.40625 24.03125 23.019531 24.03125 C 21.175781 24.03125 19.695312 25.269531 19.695312 26.800781 C 19.695312 28.335938 21.175781 29.570312 23.019531 29.570312 C 24.859375 29.570312 26.339844 28.335938 26.339844 26.800781 L 26.339844 16.460938 C 26.339844 15.75 25.847656 15.171875 25.234375 15.171875 Z M 16.371094 15.171875 "/>
<path style=" stroke:none;fill-rule:nonzero;fill:rgb(100%,100%,100%);fill-opacity:0.392157;" d="M 16.371094 15.171875 C 15.757812 15.171875 15.265625 15.75 15.265625 16.460938 L 15.265625 16.957031 C 15.265625 16.246094 15.757812 15.667969 16.371094 15.667969 L 25.234375 15.667969 C 25.847656 15.667969 26.339844 16.246094 26.339844 16.957031 L 26.339844 16.460938 C 26.339844 15.75 25.847656 15.171875 25.234375 15.171875 Z M 23.019531 24.03125 C 21.175781 24.03125 19.695312 25.269531 19.695312 26.800781 C 19.695312 26.886719 19.699219 26.96875 19.707031 27.050781 C 19.859375 25.632812 21.277344 24.53125 23.019531 24.53125 C 23.40625 24.53125 23.78125 24.585938 24.125 24.6875 L 24.125 24.191406 C 23.78125 24.089844 23.40625 24.03125 23.019531 24.03125 Z M 14.15625 27.355469 C 12.316406 27.355469 10.835938 28.589844 10.835938 30.125 C 10.835938 30.207031 10.839844 30.292969 10.847656 30.371094 C 10.996094 28.957031 12.417969 27.851562 14.15625 27.851562 C 14.546875 27.851562 14.917969 27.90625 15.265625 28.007812 L 15.265625 27.511719 C 14.917969 27.410156 14.546875 27.355469 14.15625 27.355469 Z M 14.15625 27.355469 "/>
<path style=" stroke:none;fill-rule:nonzero;fill:rgb(0%,0%,0%);fill-opacity:0.235294;" d="M 18.035156 17.386719 C 17.726562 17.386719 17.480469 17.636719 17.480469 17.941406 L 17.480469 18.6875 C 17.480469 18.378906 17.726562 18.132812 18.035156 18.132812 L 23.570312 18.132812 C 23.878906 18.132812 24.125 18.378906 24.125 18.6875 L 24.125 17.941406 C 24.125 17.636719 23.878906 17.386719 23.570312 17.386719 Z M 26.339844 26.800781 C 26.339844 28.335938 24.859375 29.570312 23.019531 29.570312 C 21.328125 29.570312 19.941406 28.53125 19.726562 27.175781 C 19.707031 27.296875 19.695312 27.421875 19.695312 27.546875 C 19.695312 29.082031 21.175781 30.316406 23.019531 30.316406 C 24.859375 30.316406 26.339844 29.082031 26.339844 27.546875 Z M 17.480469 30.125 C 17.480469 31.660156 16 32.894531 14.15625 32.894531 C 12.46875 32.894531 11.082031 31.855469 10.863281 30.496094 C 10.84375 30.617188 10.835938 30.742188 10.835938 30.867188 C 10.835938 32.402344 12.316406 33.636719 14.15625 33.636719 C 16 33.636719 17.480469 32.402344 17.480469 30.867188 Z M 17.480469 30.125 "/>
<path style="fill:none;stroke-width:3;stroke-linecap:round;stroke-linejoin:miter;stroke:rgb(12.941176%,12.941176%,12.941176%);stroke-opacity:1;stroke-miterlimit:4;" d="M 174.608326 -53.18212 C 168.067284 -53.18212 162.817785 -47.016042 162.817785 -39.433432 L 162.817785 78.430312 C 159.109806 77.347082 155.15185 76.763805 150.985582 76.763805 C 131.362456 76.763805 115.572297 89.929214 115.572297 106.30265 C 115.572297 122.676087 131.362456 135.841496 150.985582 135.841496 C 170.65037 135.841496 186.440529 122.676087 186.440529 106.30265 L 186.440529 -23.643274 C 186.440529 -26.892963 189.065279 -29.559375 192.356631 -29.559375 L 251.39266 -29.559375 C 254.684012 -29.559375 257.308762 -26.892963 257.308762 -23.643274 L 257.308762 43.017027 C 253.642445 41.933797 249.642827 41.308857 245.518221 41.308857 C 225.853432 41.308857 210.063273 54.515929 210.063273 70.847703 C 210.063273 87.221139 225.853432 100.386549 245.518221 100.386549 C 265.141347 100.386549 280.931506 87.221139 280.931506 70.847703 L 280.931506 -39.433432 C 280.931506 -47.016042 275.682007 -53.18212 269.140965 -53.18212 Z M 174.608326 -53.18212 " transform="matrix(0.093759,0,0,0.093759,0,20.158175)"/>
</g>
</svg>
